X: 13382
T: Fleur De Mandragore
R: reel
M: 4/4
K: Amajor
EGAE GABA|Aced cAAA|EGAE GABB-|BABd cAAA|
EGAE GABA|Aced cAAA|EGAE GABB-|1 BABd cAAA:|2 BABd cAAA Aceg||
|:a3A ~a2ga|bAaA ~g2ec|dfed cABc|dcde fefg|
a3A ~a2ga|bAaA ~g2ec|dfed cABc|dcBc BAA2:|

